X:369
T:Jinglin Johnnie
R:Country Dance
B:The Athole Collection
M:C|
L:1/8
K:A
E|A2Ac B2Bc|A2Ac B2Bc|A2 ag fedc|B2e2c2 AE|A2Ac B2Bc|A2Ac B2Bc|
A2ag fedc|B2e2c2A||c|e2 ef edcd|e2a2e2 cd|e2ef edcd|e2 ag fedc|d2fd c2ec|
B2Bc d2cB|A2ag fedc|B2e2c2A||E|AEAc BEGB|AEAc BEGB|A2ag fedc|
B2ed dcBA|AEAc BEGB|AEAc BEGB|A2ag fedc|BAGB ABcd||e^def ecAc|
e2af ecAc|e^def ecAc|e2ag fedc|d2bd c2ac|B2Bc d2cB|A2ag fedc|B2e2c2A||

